material/.icons/material/credit-card-wireless.svg

<svg xmlns="http://www.w3.org/2000/svg" viewBox="0 0 24 24"><path d="M4.93 4.92l1.41 1.41c3.12-3.13 8.19-3.13 11.32 0l1.41-1.41C15.17 1 8.84 1 4.93 4.92m2.83 2.83l1.41 1.41a4.008 4.008 0 015.66 0l1.41-1.41a6 6 0 00-8.48 0M18 11H6a2 2 0 00-2 2v8c0 1.11.89 2 2 2h12c1.11 0 2-.89 2-2v-8a2 2 0 00-2-2m0 6H6v-3h12v3z"/></svg>

<?xml version="1.0" encoding="UTF-8"?><!DOCTYPE svg PUBLIC "-//W3C//DTD SVG 1.1//EN" "http://www.w3.org/Graphics/SVG/1.1/DTD/svg11.dtd"><svg xmlns="http://www.w3.org/2000/svg" xmlns:xlink="http://www.w3.org/1999/xlink" version="1.1" id="mdi-credit-card-wireless" width="24" height="24" viewBox="0 0 24 24"><path d="M4.93 4.92L6.34 6.33C9.46 3.2 14.53 3.2 17.66 6.33L19.07 4.92C15.17 1 8.84 1 4.93 4.92M7.76 7.75L9.17 9.16C10.73 7.6 13.26 7.6 14.83 9.16L16.24 7.75C13.9 5.41 10.1 5.41 7.76 7.75M18 11H6C4.89 11 4 11.9 4 13V21C4 22.11 4.89 23 6 23H18C19.11 23 20 22.11 20 21V13C20 11.9 19.11 11 18 11M18 17H6V14H18V17Z" /></svg>
